icons/line/eye.svg

<svg width="24" height="24" viewBox="0 0 24 24" fill="none" xmlns="http://www.w3.org/2000/svg">
<path fill-rule="evenodd" clip-rule="evenodd" d="M5.57689 15.2975C4.26496 14.0341 3.45873 12.665 3.11186 12C3.45873 11.335 4.26496 9.96593 5.57689 8.7025C7.06963 7.26494 9.17543 6 12 6C14.8246 6 16.9304 7.26494 18.4231 8.7025C19.7351 9.96593 20.5413 11.335 20.8882 12C20.5413 12.665 19.7351 14.0341 18.4231 15.2975C16.9304 16.7351 14.8246 18 12 18C9.17543 18 7.06964 16.7351 5.57689 15.2975ZM12 4C8.51725 4 5.93948 5.57668 4.18955 7.26191C2.44986 8.93729 1.48736 10.7552 1.18881 11.3727C0.996308 11.7708 0.996309 12.2292 1.18881 12.6273C1.48736 13.2448 2.44986 15.0627 4.18955 16.7381C5.93948 18.4233 8.51725 20 12 20C15.4828 20 18.0606 18.4233 19.8105 16.7381C21.5502 15.0627 22.5127 13.2448 22.8112 12.6273C23.0037 12.2292 23.0037 11.7708 22.8112 11.3727C22.5127 10.7552 21.5502 8.93729 19.8105 7.26191C18.0606 5.57668 15.4828 4 12 4ZM10 12C10 10.8954 10.8954 10 12 10C13.1046 10 14 10.8954 14 12C14 13.1046 13.1046 14 12 14C10.8954 14 10 13.1046 10 12ZM12 8C9.79088 8 8.00002 9.79086 8.00002 12C8.00002 14.2091 9.79088 16 12 16C14.2092 16 16 14.2091 16 12C16 9.79086 14.2092 8 12 8Z" fill="currentColor"/>
</svg>

<svg width="24" height="24" fill="none" xmlns="http://www.w3.org/2000/svg"><path fill-rule="evenodd" clip-rule="evenodd" d="M5.577 15.297A13.204 13.204 0 013.112 12a13.204 13.204 0 012.465-3.297C7.07 7.265 9.175 6 12 6s4.93 1.265 6.423 2.703A13.204 13.204 0 0120.888 12a13.203 13.203 0 01-2.465 3.297C16.93 16.735 14.825 18 12 18s-4.93-1.265-6.423-2.703zM12 4C8.517 4 5.94 5.577 4.19 7.262a15.088 15.088 0 00-3.001 4.11 1.435 1.435 0 000 1.255 15.088 15.088 0 003 4.111C5.94 18.423 8.518 20 12 20c3.483 0 6.06-1.577 7.81-3.262a15.086 15.086 0 003.001-4.11 1.435 1.435 0 000-1.255 15.086 15.086 0 00-3-4.111C18.06 5.577 15.483 4 12 4zm-2 8a2 2 0 114 0 2 2 0 01-4 0zm2-4a4 4 0 100 8 4 4 0 000-8z" fill="currentColor"/></svg>
